src/assets/images/driveway-green.svg

<?xml version="1.0" encoding="UTF-8" standalone="no"?>
<svg width="52px" height="52px" viewBox="0 0 52 52" version="1.1" xmlns="http://www.w3.org/2000/svg" xmlns:xlink="http://www.w3.org/1999/xlink">
    <!-- Generator: Sketch 3.6.1 (26313) - http://www.bohemiancoding.com/sketch -->
    <title>driveway-green</title>
    <desc>Created with Sketch.</desc>
    <defs></defs>
    <g id="Page-1" stroke="none" stroke-width="1" fill="none" fill-rule="evenodd">
        <g id="map-icons" transform="translate(-433.000000, -35.000000)">
            <g id="driveway-green" transform="translate(439.000000, 41.000000)">
                <circle id="Oval-5" stroke-opacity="0.610733696" stroke="#4CAF50" stroke-width="12" fill="#4CAF50" cx="20" cy="20" r="20"></circle>
                <path d="M29.8220003,16.78269 L27.8547205,11.7795816 C27.4868006,10.8218363 26.6828007,10.0068545 25.1612009,10 L22.3868012,10 L17.6451219,10 L14.8224822,10 C13.3078424,10.0068545 12.5038425,10.8218363 12.1292026,11.7795816 L10.1614428,16.78269 C9.38024294,16.8819627 7.99760312,17.7860535 8.00000312,19.4987442 L8.00000312,25.8689798 L9.91976287,25.8689798 L9.91976287,27.9024159 C9.91496287,30.4092883 13.5171224,30.3795064 13.5161624,27.9024159 L13.5161624,25.8689798 L20.0000016,25.8689798 L26.4675207,25.8689798 L26.4675207,27.9024159 C26.4754407,30.3795064 30.0776002,30.4092883 30.0800002,27.9024159 L30.0800002,25.8689798 L32,25.8689798 L32,19.4987442 C31.994,17.7860535 30.6104002,16.8819627 29.8220003,16.78269 L29.8220003,16.78269 Z M11.7744826,22.0247621 C10.8543227,22.0273621 10.1093628,21.2714713 10.1132028,20.3418532 C10.1093628,19.4058533 10.8543227,18.6492534 11.7744826,18.6570534 C12.6917625,18.6492534 13.4367224,19.4058533 13.4355224,20.3418532 C13.4367224,21.2714713 12.6915225,22.0271257 11.7744826,22.0247621 L11.7744826,22.0247621 Z M20.0000016,16.7356537 L19.9839216,16.7356537 L12.2098426,16.7356537 L13.6935224,12.7959451 C13.8725624,12.2367088 14.1504823,11.8365452 14.8068822,11.8268543 L19.9839216,11.8268543 L20.0000016,11.8268543 L25.1936009,11.8268543 C25.8399208,11.8365452 26.1185608,12.2364724 26.3062407,12.7959451 L27.7901605,16.7356537 L20.0000016,16.7356537 L20.0000016,16.7356537 Z M28.2257605,22.0247621 C27.2991206,22.0273621 26.5536807,21.2714713 26.5486407,20.3418532 C26.5536807,19.4058533 27.2991206,18.6492534 28.2257605,18.6570534 C29.1365604,18.6492534 29.8812803,19.4058533 29.8870403,20.3418532 C29.8812803,21.2714713 29.1365604,22.0271257 28.2257605,22.0247621 L28.2257605,22.0247621 Z" id="Shape" fill="#FFFFFF"></path>
            </g>
        </g>
    </g>
</svg>

<svg width="52" height="52" viewBox="0 0 52 52" xmlns="http://www.w3.org/2000/svg"><title>driveway-green</title><g transform="translate(6 6)" fill="none" fill-rule="evenodd"><circle stroke-opacity=".611" stroke="#4CAF50" stroke-width="12" fill="#4CAF50" cx="20" cy="20" r="20"/><path d="M29.822 16.783l-1.967-5.003c-.368-.958-1.172-1.773-2.694-1.78H14.822c-1.514.007-2.318.822-2.693 1.78l-1.968 5.003c-.78.099-2.163 1.003-2.161 2.716v6.37h1.92v2.033c-.005 2.507 3.597 2.478 3.596 0V25.87h12.952v2.033c.007 2.478 3.61 2.507 3.612 0V25.87H32v-6.37c-.006-1.713-1.39-2.617-2.178-2.716zm-18.048 5.242a1.666 1.666 0 0 1-1.66-1.683c-.005-.936.74-1.693 1.66-1.685.918-.008 1.663.749 1.662 1.685 0 .93-.744 1.685-1.662 1.683zM20 16.735h-7.79l1.484-3.94c.179-.558.456-.958 1.113-.968h10.387c.646.01.925.41 1.112.969l1.484 3.94H20zm8.226 5.29a1.681 1.681 0 0 1-1.677-1.683c.005-.936.75-1.693 1.677-1.685.91-.008 1.655.749 1.661 1.685-.006.93-.75 1.685-1.661 1.683z" fill="#FFF"/></g></svg>
